common.blocks/brand-logo/_view/brand-logo_view_beeline.svg

<?xml version="1.0" encoding="UTF-8"?>
<svg width="60px" height="60px" viewBox="0 0 60 60" version="1.1" xmlns="http://www.w3.org/2000/svg" xmlns:xlink="http://www.w3.org/1999/xlink">
    <!-- Generator: Sketch 41.2 (35397) - http://www.bohemiancoding.com/sketch -->
    <title>beeline</title>
    <desc>Created with Sketch.</desc>
    <defs></defs>
    <g id="Symbols" stroke="none" stroke-width="1" fill="none" fill-rule="evenodd">
        <g id="beeline">
            <path d="M0,30 C0,13.4314575 13.4315082,7.10542736e-15 29.9945354,7.10542736e-15 L30,7.10542736e-15 L30.0054646,7.10542736e-15 C46.5709891,7.10542736e-15 60,13.4278145 60,30 L60,30 C60,46.5685425 46.5721855,60 30,60 L30,60 C13.4314575,60 0,46.5721855 0,30 L0,30 Z" id="base" fill="#FFDA32" transform="translate(30.000000, 30.000000) rotate(-270.000000) translate(-30.000000, -30.000000) "></path>
            <g id="symbol" fill="#000000">
                <path d="M7.5558284,10.1032723 C22.0453737,8.87500115 37.9467097,8.82771766 52.4494493,10.1032723 C46.955121,3.9047366 38.9307849,0 30.0026389,0 C21.0678957,0 13.0501567,3.9047366 7.5558284,10.1032723 Z M52.7442321,49.5547471 C38.6692078,50.6466659 21.9388297,50.723639 7.2546684,49.5547471 C12.7566934,55.9512137 20.9074749,60 30.0027488,60 C39.0980227,60 47.2433066,55.9512137 52.7442321,49.5547471 Z M0.984075208,22.3748774 C20.499551,22.029598 39.5268376,21.9735176 59.0214224,22.3748774 C59.6569481,24.810527 60,27.3638355 60,29.9985155 C60,32.2835177 59.7438106,34.5091406 59.2622185,36.6478938 C39.5202404,37.2196941 20.0707361,37.0734452 0.743279151,36.6478938 C0.261687038,34.5091406 0,32.2835177 0,29.9985155 C0,27.3638355 0.341952391,24.810527 0.984075208,22.3748774 Z" id="Combined-Shape"></path>
            </g>
        </g>
    </g>
</svg>

<svg width="60" height="60" xmlns="http://www.w3.org/2000/svg"><g fill="none" fill-rule="evenodd"><path d="M30 0c16.569 0 30 13.432 30 29.995v.01C60 46.571 46.572 60 30 60 13.431 60 0 46.572 0 30 0 13.431 13.428 0 30 0z" fill="#FFDA32"/><path d="M7.556 10.103c14.49-1.228 30.39-1.275 44.893 0C46.955 3.905 38.931 0 30.003 0 21.068 0 13.05 3.905 7.556 10.103zm45.188 39.452c-14.075 1.092-30.805 1.169-45.49 0C12.758 55.95 20.908 60 30.004 60c9.095 0 17.24-4.049 22.741-10.445zM.984 22.375c19.516-.345 38.543-.401 58.037 0a30.243 30.243 0 0 1 .24 14.273c-19.74.572-39.19.425-58.518 0A30.244 30.244 0 0 1 0 29.998c0-2.634.342-5.187.984-7.623z" fill="#000"/></g></svg>
